app/assets/img/work/ttl-vary-pc.svg

<svg fill="none" height="24" viewBox="0 0 89 24" width="89" xmlns="http://www.w3.org/2000/svg"><path d="m0 .688h4.352c.46933 0 .85333.106666 1.152.32.29867.21333.512.496.64.848l4.512 12.48c.2027.544.4053 1.136.608 1.776.2133.64.4107 1.312.592 2.016.1493-.704.32-1.376.512-2.016.2027-.64.4-1.232.592-1.776l4.48-12.48c.1067-.29867.3147-.56533.624-.8.3093-.245334.688-.368 1.136-.368h4.384l-9.344 23.312h-4.896zm44.3423 23.312h-4.192c-.4694 0-.8587-.1067-1.168-.32-.2987-.224-.5067-.5067-.6241-.848l-1.3759-4.064h-8.8641l-1.376 4.064c-.1066.2987-.3146.5707-.624.816-.3093.2347-.6879.352-1.136.352h-4.224l9.0241-23.312h5.536zm-14.976-8.912h6.368l-2.144-6.384c-.1387-.40533-.304-.88-.496-1.424-.1814-.55467-.3627-1.152-.544-1.792-.1707.65067-.3467 1.25333-.528 1.808-.1814.55467-.3521 1.03467-.512 1.44zm22.6017.288v8.624h-5.408v-23.312h7.584c1.6853 0 3.12.176 4.304.528 1.1947.34133 2.1653.82133 2.912 1.44.7573.61867 1.3067 1.34933 1.648 2.192s.512 1.76.512 2.752c0 .75733-.1013 1.472-.304 2.144s-.5067 1.296-.912 1.872c-.3947.5653-.8853 1.072-1.472 1.52-.576.448-1.2427.816-2 1.104.3627.1813.6987.4053 1.008.672.32.2667.5973.592.832.976l4.96 8.112h-4.896c-.9067 0-1.5573-.3413-1.952-1.024l-3.872-6.768c-.1707-.2987-.3733-.512-.608-.64-.224-.128-.544-.192-.96-.192zm0-3.728h2.176c.736 0 1.36-.0907 1.872-.272.5227-.192.9493-.4533 1.28-.784s.5707-.71467.72-1.152c.1493-.448.224-.928.224-1.44 0-1.024-.336-1.824-1.008-2.4-.6613-.576-1.6907-.864-3.088-.864h-2.176zm27.8092 3.488v8.864h-5.408v-8.864l-8.448-14.448h4.768c.4694 0 .8427.111999 1.12.336.2774.21333.5014.49067.672.832l3.296 6.784c.2667.544.512 1.04533.736 1.504.224.4587.4214.912.592 1.36.16-.4587.352-.9173.576-1.376.224-.45867.4641-.95467.72-1.488l3.264-6.784c.064-.13867.1494-.27733.256-.416.1174-.13867.2454-.26133.3841-.368.1493-.117335.3146-.208002.496-.272001.192-.074666.4-.111999.6239-.111999h4.8001z" fill="#121111"/></svg>

<svg width="89" height="24" viewBox="0 0 89 24" fill="none" xmlns="http://www.w3.org/2000/svg">
<path d="M0 0.688H4.352C4.82133 0.688 5.20533 0.794666 5.504 1.008C5.80267 1.22133 6.016 1.504 6.144 1.856L10.656 14.336C10.8587 14.88 11.0613 15.472 11.264 16.112C11.4773 16.752 11.6747 17.424 11.856 18.128C12.0053 17.424 12.176 16.752 12.368 16.112C12.5707 15.472 12.768 14.88 12.96 14.336L17.44 1.856C17.5467 1.55733 17.7547 1.29067 18.064 1.056C18.3733 0.810666 18.752 0.688 19.2 0.688H23.584L14.24 24H9.344L0 0.688ZM44.3423 24H40.1503C39.6809 24 39.2916 23.8933 38.9823 23.68C38.6836 23.456 38.4756 23.1733 38.3582 22.832L36.9823 18.768H28.1182L26.7422 22.832C26.6356 23.1307 26.4276 23.4027 26.1182 23.648C25.8089 23.8827 25.4303 24 24.9822 24H20.7582L29.7823 0.688H35.3183L44.3423 24ZM29.3663 15.088H35.7343L33.5903 8.704C33.4516 8.29867 33.2863 7.824 33.0943 7.28C32.9129 6.72533 32.7316 6.128 32.5503 5.488C32.3796 6.13867 32.2036 6.74133 32.0223 7.296C31.8409 7.85067 31.6702 8.33067 31.5103 8.736L29.3663 15.088ZM51.968 15.376V24H46.56V0.688H54.144C55.8293 0.688 57.264 0.864 58.448 1.216C59.6427 1.55733 60.6133 2.03733 61.36 2.656C62.1173 3.27467 62.6667 4.00533 63.008 4.848C63.3493 5.69067 63.52 6.608 63.52 7.6C63.52 8.35733 63.4187 9.072 63.216 9.744C63.0133 10.416 62.7093 11.04 62.304 11.616C61.9093 12.1813 61.4187 12.688 60.832 13.136C60.256 13.584 59.5893 13.952 58.832 14.24C59.1947 14.4213 59.5307 14.6453 59.84 14.912C60.16 15.1787 60.4373 15.504 60.672 15.888L65.632 24H60.736C59.8293 24 59.1787 23.6587 58.784 22.976L54.912 16.208C54.7413 15.9093 54.5387 15.696 54.304 15.568C54.08 15.44 53.76 15.376 53.344 15.376H51.968ZM51.968 11.648H54.144C54.88 11.648 55.504 11.5573 56.016 11.376C56.5387 11.184 56.9653 10.9227 57.296 10.592C57.6267 10.2613 57.8667 9.87733 58.016 9.44C58.1653 8.992 58.24 8.512 58.24 8C58.24 6.976 57.904 6.176 57.232 5.6C56.5707 5.024 55.5413 4.736 54.144 4.736H51.968V11.648ZM79.7772 15.136V24H74.3692V15.136L65.9212 0.688H70.6892C71.1586 0.688 71.5319 0.799999 71.8092 1.024C72.0866 1.23733 72.3106 1.51467 72.4812 1.856L75.7772 8.64C76.0439 9.184 76.2892 9.68533 76.5132 10.144C76.7372 10.6027 76.9346 11.056 77.1052 11.504C77.2652 11.0453 77.4572 10.5867 77.6812 10.128C77.9052 9.66933 78.1453 9.17333 78.4012 8.64L81.6652 1.856C81.7292 1.71733 81.8146 1.57867 81.9212 1.44C82.0386 1.30133 82.1666 1.17867 82.3053 1.072C82.4546 0.954665 82.6199 0.863998 82.8013 0.799999C82.9933 0.725333 83.2013 0.688 83.4252 0.688H88.2253L79.7772 15.136Z" fill="#121111"/>
</svg>
